storage/app/icons/phosphoricons/thin/scan-thin.svg

<svg xmlns="http://www.w3.org/2000/svg" fill="currentColor" viewBox="0 0 256 256"><path d="M220 40v40a4 4 0 0 1-8 0V44h-36a4 4 0 0 1 0-8h40a4 4 0 0 1 4 4M80 212H44v-36a4 4 0 0 0-8 0v40a4 4 0 0 0 4 4h40a4 4 0 0 0 0-8m136-40a4 4 0 0 0-4 4v36h-36a4 4 0 0 0 0 8h40a4 4 0 0 0 4-4v-40a4 4 0 0 0-4-4M40 84a4 4 0 0 0 4-4V44h36a4 4 0 0 0 0-8H40a4 4 0 0 0-4 4v40a4 4 0 0 0 4 4m40-8h96a4 4 0 0 1 4 4v96a4 4 0 0 1-4 4H80a4 4 0 0 1-4-4V80a4 4 0 0 1 4-4m4 96h88V84H84Z"/></svg>

<svg xmlns="http://www.w3.org/2000/svg" viewBox="0 0 256 256" fill="currentColor"><path d="M220,40V80a4,4,0,0,1-8,0V44H176a4,4,0,0,1,0-8h40A4,4,0,0,1,220,40ZM80,212H44V176a4,4,0,0,0-8,0v40a4,4,0,0,0,4,4H80a4,4,0,0,0,0-8Zm136-40a4,4,0,0,0-4,4v36H176a4,4,0,0,0,0,8h40a4,4,0,0,0,4-4V176A4,4,0,0,0,216,172ZM40,84a4,4,0,0,0,4-4V44H80a4,4,0,0,0,0-8H40a4,4,0,0,0-4,4V80A4,4,0,0,0,40,84Zm40-8h96a4,4,0,0,1,4,4v96a4,4,0,0,1-4,4H80a4,4,0,0,1-4-4V80A4,4,0,0,1,80,76Zm4,96h88V84H84Z"/></svg>
